elusive/female.svg

<?xml version="1.0" encoding="UTF-8" standalone="no"?>
<!-- Generator: IcoMoon.io -->

<svg
   xmlns:dc="http://purl.org/dc/elements/1.1/"
   xmlns:cc="http://creativecommons.org/ns#"
   xmlns:rdf="http://www.w3.org/1999/02/22-rdf-syntax-ns#"
   xmlns:svg="http://www.w3.org/2000/svg"
   xmlns="http://www.w3.org/2000/svg"
   xmlns:sodipodi="http://sodipodi.sourceforge.net/DTD/sodipodi-0.dtd"
   xmlns:inkscape="http://www.inkscape.org/namespaces/inkscape"
   id="svg2"
   version="1.1"
   data-tags="remove-circle, cancel, close, remove, delete"
   height="1200"
   width="1200"
   data-du=""
   viewBox="0 0 1200 1200"
   inkscape:version="0.48.4 r9939"
   sodipodi:docname="female.svg">
  <defs
     id="defs32" />
  <sodipodi:namedview
     pagecolor="#ffffff"
     bordercolor="#666666"
     borderopacity="1"
     objecttolerance="10"
     gridtolerance="10"
     guidetolerance="10"
     inkscape:pageopacity="0"
     inkscape:pageshadow="2"
     inkscape:window-width="1535"
     inkscape:window-height="876"
     id="namedview30"
     showgrid="false"
     inkscape:zoom="0.52678571"
     inkscape:cx="712.39682"
     inkscape:cy="669.02953"
     inkscape:window-x="65"
     inkscape:window-y="24"
     inkscape:window-maximized="1"
     inkscape:current-layer="svg2" />
  <metadata
     id="metadata62">
    <rdf:RDF>
      <cc:Work
         rdf:about="">
        <dc:format>image/svg+xml</dc:format>
        <dc:type
           rdf:resource="http://purl.org/dc/dcmitype/StillImage" />
        <dc:title />
      </cc:Work>
    </rdf:RDF>
  </metadata>
  <path
     inkscape:connector-curvature="0"
     d="M 600,0 C 387.13546,0 214.53773,172.59773 214.53773,385.46226 c 0,187.75031 134.30978,344.18085 312.05507,378.47813 l 0,124.07905 -165.31475,0 0,146.74006 165.31475,0 0,165.2405 146.74009,0 0,-165.2405 165.31477,0 0,-146.74006 -165.31477,0 0,-124.07905 C 851.1136,729.67148 985.46226,573.23789 985.46226,385.46226 985.46226,172.59773 812.86453,0 600,0 z m 0,153.27844 c 128.23124,0 232.18382,103.95256 232.18382,232.18382 0,128.23125 -103.95258,232.18383 -232.18382,232.18383 -128.23125,0 -232.18383,-103.95258 -232.18383,-232.18383 C 367.81617,257.231 471.76875,153.27844 600,153.27844 z"
     id="path7189" />
</svg>

<?xml version="1.0" encoding="utf-8"?>
<!-- Generator: Adobe Illustrator 16.0.0, SVG Export Plug-In . SVG Version: 6.00 Build 0)  -->
<!DOCTYPE svg PUBLIC "-//W3C//DTD SVG 1.1//EN" "http://www.w3.org/Graphics/SVG/1.1/DTD/svg11.dtd">
<svg version="1.1"
	 id="svg2" xmlns:dc="http://purl.org/dc/elements/1.1/" xmlns:cc="http://creativecommons.org/ns#" xmlns:rdf="http://www.w3.org/1999/02/22-rdf-syntax-ns#" xmlns:svg="http://www.w3.org/2000/svg" xmlns:sodipodi="http://sodipodi.sourceforge.net/DTD/sodipodi-0.dtd" xmlns:inkscape="http://www.inkscape.org/namespaces/inkscape" sodipodi:docname="female.svg" inkscape:version="0.48.4 r9939"
	 xmlns="http://www.w3.org/2000/svg" xmlns:xlink="http://www.w3.org/1999/xlink" x="0px" y="0px" width="1200px" height="1200px"
	 viewBox="0 0 1200 1200" enable-background="new 0 0 1200 1200" xml:space="preserve">
<sodipodi:namedview  inkscape:cy="669.02953" inkscape:cx="712.39682" inkscape:zoom="0.52678571" showgrid="false" id="namedview30" guidetolerance="10" gridtolerance="10" objecttolerance="10" borderopacity="1" bordercolor="#666666" pagecolor="#ffffff" inkscape:current-layer="svg2" inkscape:window-maximized="1" inkscape:window-y="24" inkscape:window-height="876" inkscape:window-width="1535" inkscape:pageshadow="2" inkscape:pageopacity="0" inkscape:window-x="65">
	</sodipodi:namedview>
<path id="path7189" inkscape:connector-curvature="0" d="M600,0C387.136,0,214.538,172.598,214.538,385.462
	c0,187.751,134.31,344.181,312.055,378.479V888.02H361.278v146.74h165.314V1200h146.74v-165.24h165.314V888.02H673.333V763.94
	c177.78-34.269,312.129-190.702,312.129-378.479C985.462,172.598,812.864,0,600,0z M600,153.278
	c128.231,0,232.184,103.953,232.184,232.184c0,128.231-103.952,232.185-232.184,232.185S367.816,513.693,367.816,385.462
	C367.816,257.231,471.769,153.278,600,153.278z"/>
</svg>
